polaris-icons/icons/newicons/BillingStatementDollar.svg

<svg width="20" height="20" viewBox="0 0 20 20" fill="none" xmlns="http://www.w3.org/2000/svg">
<path d="M7.75 5C7.33579 5 7 5.33579 7 5.75C7 6.16421 7.33579 6.5 7.75 6.5H12.25C12.6642 6.5 13 6.16421 13 5.75C13 5.33579 12.6634 5 12.2492 5H7.75Z" fill="black"/>
<path d="M7 8.75C7 8.33579 7.33579 8 7.75 8H12.2492C12.6634 8 13 8.33579 13 8.75C13 9.16421 12.6642 9.5 12.25 9.5H7.75C7.33579 9.5 7 9.16421 7 8.75Z" fill="black"/>
<path d="M7.75 11C7.33579 11 7 11.3358 7 11.75C7 12.1642 7.33579 12.5 7.75 12.5H10.2199C10.6341 12.5 10.9699 12.1642 10.9699 11.75C10.9699 11.3358 10.6332 11 10.219 11H7.75Z" fill="black"/>
<path fill-rule="evenodd" clip-rule="evenodd" d="M4 16.5C4 17.1211 4.38275 17.6779 4.9626 17.9004C5.54245 18.1229 6.19945 17.9651 6.61493 17.5035L7.74999 16.2423L8.88506 17.5035C9.16952 17.8196 9.57477 18 10 18C10.4252 18 10.8305 17.8196 11.1149 17.5035L12.25 16.2423L13.3851 17.5035C13.8005 17.9651 14.4576 18.1229 15.0374 17.9004C15.6172 17.6779 16 17.1211 16 16.5V4.5C16 3.11929 14.8807 2 13.5 2H6.5C5.11929 2 4 3.11929 4 4.5V16.5ZM5.5 4.5V16.5L7.00671 14.8259C7.40395 14.3845 8.09605 14.3845 8.49329 14.8259L10 16.5L11.5067 14.8259C11.904 14.3845 12.5961 14.3845 12.9933 14.8259L14.5 16.5V4.5C14.5 3.94772 14.0523 3.5 13.5 3.5H6.5C5.94772 3.5 5.5 3.94772 5.5 4.5Z" fill="black"/>
</svg>

<svg viewBox="0 0 20 20" fill="none" xmlns="http://www.w3.org/2000/svg"><path d="M7.75 5a.75.75 0 0 0 0 1.5h4.5a.75.75 0 1 0 0-1.5h-4.5Z" fill="#5C5F62"/><path d="M7 8.75a.75.75 0 0 1 .75-.75h4.5a.75.75 0 0 1 0 1.5h-4.5a.75.75 0 0 1-.75-.75Z" fill="#5C5F62"/><path d="M7.75 11a.75.75 0 0 0 0 1.5h2.47a.75.75 0 1 0-.001-1.5h-2.469Z" fill="#5C5F62"/><path fill-rule="evenodd" clip-rule="evenodd" d="M4 16.5a1.5 1.5 0 0 0 2.615 1.003l1.135-1.26 1.135 1.26a1.5 1.5 0 0 0 2.23 0l1.135-1.26 1.135 1.26a1.5 1.5 0 0 0 2.615-1.003v-12a2.5 2.5 0 0 0-2.5-2.5h-7a2.5 2.5 0 0 0-2.5 2.5v12Zm1.5-12v12l1.507-1.674a1 1 0 0 1 1.486 0l1.507 1.674 1.507-1.674a1 1 0 0 1 1.486 0l1.507 1.674v-12a1 1 0 0 0-1-1h-7a1 1 0 0 0-1 1Z" fill="#5C5F62"/></svg>
